FINK
CUT[EINSAM WANDL ICH]
REG[Europa, Mitteleuropa, Deutschland]
KEY[F1076  08 Ab 4/4]
MEL[33  3_.11_-7-6  -5#_-5#_0_
    -6-6  -7_.-73_.2  1__0_
    1#1#  2_.26_.6  6_3_
    4_3_  1_.-61_-7_  -6__0_
    43  321#21#265  5_.310
    43  321-7-6-554  3__
    +1_.7  7_6_67b65  4_4_
    6_54  35421_32  1__0_ //] >>
FCT[Trost - Lied]
